svgs/solid/down-to-bracket.svg

<svg xmlns="http://www.w3.org/2000/svg" viewBox="0 0 448 512"><!--! Font Awesome Pro 6.1.2 by @fontawesome - https://fontawesome.com License - https://fontawesome.com/license (Commercial License) Copyright 2022 Fonticons, Inc. --><path d="M206.5 344.7L70.55 200.6C63.97 193.7 62.17 183.4 65.95 174.6C69.75 165.8 78.42 160.1 88 160.1H160V32.02C160 14.33 174.3 0 192 0H256C273.7 0 288 14.33 288 32.02V160.1H360C369.6 160.1 378.2 165.8 382 174.6C385.8 183.4 384 193.7 377.5 200.6L241.5 344.7C232.4 354.3 215.6 354.3 206.5 344.7zM352 512H96C42.98 512 0 469 0 416V352C0 334.3 14.33 319.1 32 319.1C49.67 319.1 64 334.3 64 352V416C64 433.7 78.33 448 96 448H352C369.7 448 384 433.7 384 416V352C384 334.3 398.3 319.1 416 319.1C433.7 319.1 448 334.3 448 352V416C448 469 405 512 352 512z"/></svg>

<svg xmlns="http://www.w3.org/2000/svg" viewBox="0 0 448 512"><!--! Font Awesome Pro 6.2.0 by @fontawesome - https://fontawesome.com License - https://fontawesome.com/license (Commercial License) Copyright 2022 Fonticons, Inc. --><path d="M241.4 344.5c-4.5 4.8-10.8 7.5-17.4 7.5s-12.9-2.7-17.4-7.5l-136-144c-6.6-7-8.4-17.2-4.6-26s12.5-14.5 22-14.5h72V32c0-17.7 14.3-32 32-32h64c17.7 0 32 14.3 32 32V160h72c9.6 0 18.2 5.7 22 14.5s2 19-4.6 26l-136 144zM64 352v64c0 17.7 14.3 32 32 32H352c17.7 0 32-14.3 32-32V352c0-17.7 14.3-32 32-32s32 14.3 32 32v64c0 53-43 96-96 96H96c-53 0-96-43-96-96V352c0-17.7 14.3-32 32-32s32 14.3 32 32z"/></svg>
